packages/foundations/assets/icons/functional/images/communication/chat.svg

<svg xmlns="http://www.w3.org/2000/svg" width="32" height="32" fill="none"><path fill="#1A1C1F" fill-rule="evenodd" d="M4.301 2.591c-.39.095-.944.384-1.268.661-.335.288-.712.855-.888 1.336L2 4.987l-.017 11.76c-.011 8.306.001 11.839.042 12.028.099.462.468.749.909.706.543-.052.605-.105 3.573-3.06 1.54-1.533 2.867-2.813 2.95-2.844.104-.04 2.842-.057 8.96-.058 9.5-.001 9.151.009 9.796-.279.638-.285 1.244-.886 1.52-1.507.278-.624.267-.275.267-8.746 0-7.511-.005-7.909-.098-8.214a3.22 3.22 0 0 0-1.638-1.939 3.7 3.7 0 0 0-.738-.274c-.185-.034-4.314-.052-11.6-.049-9.569.004-11.361.016-11.625.08M27.53 4.629a1 1 0 0 1 .333.397l.137.275v7.719c0 5.339-.018 7.766-.057 7.87-.081.213-.256.389-.503.503-.205.094-.574.098-9.067.1-5.941.001-8.967.02-9.2.057a3.2 3.2 0 0 0-.693.22c-.312.148-.552.37-2.413 2.244L4 26.095V15.659c0-10.276.002-10.44.105-10.642.117-.23.401-.431.691-.488.105-.02 5.219-.034 11.364-.03l11.173.008zM7.722 9.546a1.007 1.007 0 0 0-.461 1.627c.321.367-.186.347 8.789.347 5.3 0 8.15-.019 8.278-.055.355-.098.687-.589.684-1.012-.003-.363-.356-.799-.734-.904-.24-.067-16.335-.07-16.556-.003m-.136 5.049c-.426.21-.667.7-.554 1.124.089.332.233.518.505.65l.23.111h8.279c9.126 0 8.451.026 8.717-.333.149-.201.25-.475.25-.678 0-.232-.246-.656-.466-.802l-.2-.134-8.294-.012c-7.537-.011-8.309-.005-8.467.074"/></svg>

<svg width="32" height="32" viewBox="0 0 32 32" fill="none" xmlns="http://www.w3.org/2000/svg"><path d="M4.301 2.591 C 3.911 2.686,3.357 2.975,3.033 3.252 C 2.698 3.540,2.321 4.107,2.145 4.588 L 2.000 4.987 1.983 16.747 C 1.972 25.053,1.984 28.586,2.025 28.775 C 2.124 29.237,2.493 29.524,2.934 29.481 C 3.477 29.429,3.539 29.376,6.507 26.421 C 8.047 24.888,9.374 23.608,9.457 23.577 C 9.561 23.537,12.299 23.520,18.417 23.519 C 27.917 23.518,27.568 23.528,28.213 23.240 C 28.851 22.955,29.457 22.354,29.733 21.733 C 30.011 21.109,30.000 21.458,30.000 12.987 C 30.000 5.476,29.995 5.078,29.902 4.773 C 29.643 3.927,29.042 3.217,28.264 2.834 C 28.016 2.712,27.684 2.589,27.526 2.560 C 27.341 2.526,23.212 2.508,15.926 2.511 C 6.357 2.515,4.565 2.527,4.301 2.591 M27.530 4.629 C 27.654 4.706,27.776 4.851,27.863 5.026 L 28.000 5.301 28.000 13.020 C 28.000 18.359,27.982 20.786,27.943 20.890 C 27.862 21.103,27.687 21.279,27.440 21.393 C 27.235 21.487,26.866 21.491,18.373 21.493 C 12.432 21.494,9.406 21.513,9.173 21.550 C 8.983 21.581,8.671 21.680,8.480 21.770 C 8.168 21.918,7.928 22.140,6.067 24.014 L 4.000 26.095 4.000 15.659 C 4.000 5.383,4.002 5.219,4.105 5.017 C 4.222 4.787,4.506 4.586,4.796 4.529 C 4.901 4.509,10.015 4.495,16.160 4.499 L 27.333 4.507 27.530 4.629 M7.722 9.546 C 7.025 9.756,6.778 10.624,7.261 11.173 C 7.582 11.540,7.075 11.520,16.050 11.520 C 21.350 11.520,24.200 11.501,24.328 11.465 C 24.683 11.367,25.015 10.876,25.012 10.453 C 25.009 10.090,24.656 9.654,24.278 9.549 C 24.038 9.482,7.943 9.479,7.722 9.546 M7.586 14.595 C 7.160 14.805,6.919 15.295,7.032 15.719 C 7.121 16.051,7.265 16.237,7.537 16.369 L 7.767 16.480 16.046 16.480 C 25.172 16.480,24.497 16.506,24.763 16.147 C 24.912 15.946,25.013 15.672,25.013 15.469 C 25.013 15.237,24.767 14.813,24.547 14.667 L 24.347 14.533 16.053 14.521 C 8.516 14.510,7.744 14.516,7.586 14.595 " fill="#1A1C1F" stroke="none" fill-rule="evenodd"></path></svg>
